wp-content/themes/thousand_one/images/logo/brands/logo-microsoft.svg

<svg width="200" height="120" viewBox="0 0 200 120" fill="none" xmlns="http://www.w3.org/2000/svg">
<path d="M195 58.1001V54.8001H190.9V49.6001H190.8L186.9 50.8001H186.8V54.7001H180.6V52.5001C180.6 51.5001 180.8 50.7001 181.3 50.2001C181.7 49.7001 182.4 49.4001 183.2 49.4001C183.8 49.4001 184.4 49.5001 185 49.8001L185.2 49.9001V46.4001H185.1C184.5 46.2001 183.8 46.1001 182.8 46.1001C181.6 46.1001 180.5 46.4001 179.5 46.9001C178.5 47.4001 177.8 48.2001 177.3 49.1001C176.8 50.0001 176.5 51.1001 176.5 52.4001V54.8001H173.6V58.1001H176.5V72.2001H180.6V58.1001H186.8V67.0001C186.8 70.7001 188.5 72.5001 192 72.5001C192.6 72.5001 193.2 72.4001 193.8 72.3001C194.4 72.2001 194.8 72.0001 195.1 71.9001H195.2V68.5001L195 68.6001C194.8 68.7001 194.5 68.9001 194.2 69.0001C193.9 69.1001 193.6 69.1001 193.4 69.1001C192.6 69.1001 192 68.9001 191.6 68.5001C191.2 68.1001 191 67.3001 191 66.3001V58.1001H195ZM164.3 69.2001C162.8 69.2001 161.6 68.7001 160.8 67.7001C160 66.7001 159.5 65.3001 159.5 63.5001C159.5 61.7001 159.9 60.2001 160.8 59.2001C161.6 58.2001 162.8 57.7001 164.3 57.7001C165.7 57.7001 166.9 58.2001 167.7 59.1001C168.5 60.1001 168.9 61.5001 168.9 63.4001C168.9 65.3001 168.5 66.7001 167.7 67.7001C166.9 68.7001 165.8 69.2001 164.3 69.2001ZM164.5 54.3001C161.6 54.3001 159.3 55.1001 157.7 56.8001C156.1 58.5001 155.3 60.8001 155.3 63.6001C155.3 66.3001 156.1 68.5001 157.7 70.1001C159.3 71.7001 161.4 72.5001 164.1 72.5001C166.9 72.5001 169.1 71.6001 170.7 70.0001C172.3 68.3001 173.1 66.0001 173.1 63.2001C173.1 60.4001 172.3 58.2001 170.8 56.6001C169.3 55.1001 167.2 54.3001 164.5 54.3001ZM148.5 54.3001C146.5 54.3001 144.9 54.8001 143.7 55.8001C142.5 56.8001 141.8 58.1001 141.8 59.7001C141.8 60.5001 141.9 61.2001 142.2 61.9001C142.5 62.5001 142.9 63.1001 143.4 63.5001C143.9 64.0001 144.8 64.4001 145.9 64.9001C146.8 65.3001 147.5 65.6001 148 65.9001C148.4 66.2001 148.7 66.4001 148.9 66.7001C149.1 66.9001 149.2 67.3001 149.2 67.7001C149.2 68.9001 148.3 69.4001 146.5 69.4001C145.8 69.4001 145.1 69.3001 144.2 69.0001C143.4 68.7001 142.6 68.3001 141.9 67.8001L141.7 67.7001V71.7001H141.8C142.4 72.0001 143.1 72.2001 144 72.4001C144.9 72.6001 145.7 72.7001 146.3 72.7001C148.4 72.7001 150.1 72.2001 151.4 71.2001C152.7 70.2001 153.3 68.9001 153.3 67.2001C153.3 66.0001 153 65.0001 152.3 64.2001C151.6 63.4001 150.5 62.7001 148.8 62.0001C147.5 61.5001 146.7 61.1001 146.3 60.7001C146 60.4001 145.8 59.9001 145.8 59.4001C145.8 58.9001 146 58.5001 146.4 58.2001C146.8 57.9001 147.4 57.7001 148.2 57.7001C148.9 57.7001 149.6 57.8001 150.3 58.0001C151 58.2001 151.6 58.5001 152.1 58.9001L152.3 59.0001V55.2001H152.2C151.7 55.0001 151.1 54.8001 150.3 54.7001C149.8 54.4001 149.1 54.3001 148.5 54.3001ZM131.1 69.2001C129.6 69.2001 128.4 68.7001 127.6 67.7001C126.8 66.7001 126.3 65.3001 126.3 63.5001C126.3 61.7001 126.7 60.2001 127.6 59.2001C128.4 58.2001 129.6 57.7001 131.1 57.7001C132.5 57.7001 133.7 58.2001 134.5 59.1001C135.3 60.1001 135.7 61.5001 135.7 63.4001C135.7 65.3001 135.3 66.7001 134.5 67.7001C133.7 68.7001 132.6 69.2001 131.1 69.2001ZM131.2 54.3001C128.3 54.3001 126 55.1001 124.4 56.8001C122.8 58.5001 122 60.8001 122 63.6001C122 66.3001 122.8 68.5001 124.4 70.1001C126 71.7001 128.1 72.5001 130.8 72.5001C133.6 72.5001 135.8 71.6001 137.4 70.0001C139 68.3001 139.8 66.0001 139.8 63.2001C139.8 60.4001 139 58.2001 137.5 56.6001C136.1 55.1001 133.9 54.3001 131.2 54.3001ZM115.7 57.7001V54.7001H111.6V72.1001H115.7V63.2001C115.7 61.7001 116 60.4001 116.7 59.5001C117.4 58.6001 118.3 58.1001 119.3 58.1001C119.7 58.1001 120.1 58.2001 120.5 58.3001C120.9 58.4001 121.3 58.5001 121.5 58.7001L121.7 58.8001V54.7001H121.6C121.2 54.5001 120.7 54.5001 120 54.5001C119 54.5001 118 54.8001 117.3 55.5001C116.6 56.0001 116.1 56.8001 115.7 57.7001ZM104.3 54.3001C102.4 54.3001 100.7 54.7001 99.3002 55.5001C97.9002 56.3001 96.8002 57.4001 96.0002 58.9001C95.3002 60.3001 94.9002 62.0001 94.9002 63.9001C94.9002 65.5001 95.3002 67.1001 96.0002 68.4001C96.7002 69.7001 97.8002 70.8001 99.1002 71.5001C100.4 72.2001 101.9 72.6001 103.6 72.6001C105.5 72.6001 107.2 72.2001 108.5 71.4001H108.6V67.6001L108.4 67.7001C107.8 68.1001 107.1 68.5001 106.4 68.7001C105.7 69.0001 105 69.1001 104.4 69.1001C102.8 69.1001 101.5 68.6001 100.6 67.6001C99.7002 66.6001 99.2002 65.2001 99.2002 63.5001C99.2002 61.7001 99.7002 60.3001 100.7 59.2001C101.7 58.1001 103 57.6001 104.5 57.6001C105.8 57.6001 107.2 58.1001 108.4 59.0001L108.6 59.1001V55.1001H108.5C108 54.8001 107.4 54.6001 106.6 54.5001C105.8 54.4001 105 54.3001 104.3 54.3001ZM92.1002 54.7001H88.0002V72.1001H92.1002V54.7001ZM90.1002 47.3001C89.4002 47.3001 88.8002 47.5001 88.4002 48.0001C87.9002 48.5001 87.7002 49.0001 87.7002 49.7001C87.7002 50.4001 87.9002 50.9001 88.4002 51.4001C88.9002 51.8001 89.5002 52.1001 90.2002 52.1001C90.9002 52.1001 91.5002 51.9001 92.0002 51.4001C92.5002 51.0001 92.7002 50.4001 92.7002 49.7001C92.7002 49.0001 92.5002 48.5001 92.0002 48.0001C91.4002 47.5001 90.8002 47.3001 90.1002 47.3001ZM79.8002 53.4001V72.1001H84.0002V47.8001H78.2002L70.8002 65.8001L63.7002 47.8001H57.7002V72.1001H61.6002V53.4001H61.7002L69.2002 72.1001H72.2002L79.6002 53.4001H79.8002Z" fill="#706D6E"/>
<path d="M24.3 59.0002H5V39.7002H24.3V59.0002Z" fill="#F1511B"/>
<path d="M45.5998 59.0002H26.2998V39.7002H45.5998V59.0002Z" fill="#80CC28"/>
<path d="M24.3 80.3H5V61H24.3V80.3Z" fill="#00ADEF"/>
<path d="M45.5998 80.3H26.2998V61H45.5998V80.3Z" fill="#FBBC09"/>
<rect x="0.5" y="0.5" width="199" height="119" stroke="black"/>
</svg>

<?xml version="1.0" encoding="utf-8"?>
<!-- Generator: Adobe Illustrator 24.0.1, SVG Export Plug-In . SVG Version: 6.00 Build 0)  -->
<svg version="1.1" id="Слой_1" xmlns="http://www.w3.org/2000/svg" xmlns:xlink="http://www.w3.org/1999/xlink" x="0px" y="0px"
	 viewBox="0 0 200 120" style="enable-background:new 0 0 200 120;" xml:space="preserve">
<style type="text/css">
	.st0{fill:#706D6E;}
	.st1{fill:#F1511B;}
	.st2{fill:#80CC28;}
	.st3{fill:#00ADEF;}
	.st4{fill:#FBBC09;}
</style>
<path class="st0" d="M195,58.1v-3.3h-4.1v-5.2l-0.1,0l-3.9,1.2l-0.1,0v3.9h-6.2v-2.2c0-1,0.2-1.8,0.7-2.3c0.4-0.5,1.1-0.8,1.9-0.8
	c0.6,0,1.2,0.1,1.8,0.4l0.2,0.1v-3.5l-0.1,0c-0.6-0.2-1.3-0.3-2.3-0.3c-1.2,0-2.3,0.3-3.3,0.8c-1,0.5-1.7,1.3-2.2,2.2
	c-0.5,0.9-0.8,2-0.8,3.3v2.4h-2.9v3.3h2.9v14.1h4.1V58.1h6.2V67c0,3.7,1.7,5.5,5.2,5.5c0.6,0,1.2-0.1,1.8-0.2c0.6-0.1,1-0.3,1.3-0.4
	l0.1,0v-3.4l-0.2,0.1c-0.2,0.1-0.5,0.3-0.8,0.4c-0.3,0.1-0.6,0.1-0.8,0.1c-0.8,0-1.4-0.2-1.8-0.6c-0.4-0.4-0.6-1.2-0.6-2.2v-8.2H195
	L195,58.1z M164.3,69.2c-1.5,0-2.7-0.5-3.5-1.5c-0.8-1-1.3-2.4-1.3-4.2c0-1.8,0.4-3.3,1.3-4.3c0.8-1,2-1.5,3.5-1.5
	c1.4,0,2.6,0.5,3.4,1.4c0.8,1,1.2,2.4,1.2,4.3c0,1.9-0.4,3.3-1.2,4.3C166.9,68.7,165.8,69.2,164.3,69.2 M164.5,54.3
	c-2.9,0-5.2,0.8-6.8,2.5c-1.6,1.7-2.4,4-2.4,6.8c0,2.7,0.8,4.9,2.4,6.5c1.6,1.6,3.7,2.4,6.4,2.4c2.8,0,5-0.9,6.6-2.5
	c1.6-1.7,2.4-4,2.4-6.8c0-2.8-0.8-5-2.3-6.6C169.3,55.1,167.2,54.3,164.5,54.3 M148.5,54.3c-2,0-3.6,0.5-4.8,1.5
	c-1.2,1-1.9,2.3-1.9,3.9c0,0.8,0.1,1.5,0.4,2.2c0.3,0.6,0.7,1.2,1.2,1.6c0.5,0.5,1.4,0.9,2.5,1.4c0.9,0.4,1.6,0.7,2.1,1
	c0.4,0.3,0.7,0.5,0.9,0.8c0.2,0.2,0.3,0.6,0.3,1c0,1.2-0.9,1.7-2.7,1.7c-0.7,0-1.4-0.1-2.3-0.4c-0.8-0.3-1.6-0.7-2.3-1.2l-0.2-0.1v4
	l0.1,0c0.6,0.3,1.3,0.5,2.2,0.7c0.9,0.2,1.7,0.3,2.3,0.3c2.1,0,3.8-0.5,5.1-1.5c1.3-1,1.9-2.3,1.9-4c0-1.2-0.3-2.2-1-3
	c-0.7-0.8-1.8-1.5-3.5-2.2c-1.3-0.5-2.1-0.9-2.5-1.3c-0.3-0.3-0.5-0.8-0.5-1.3c0-0.5,0.2-0.9,0.6-1.2c0.4-0.3,1-0.5,1.8-0.5
	c0.7,0,1.4,0.1,2.1,0.3c0.7,0.2,1.3,0.5,1.8,0.9l0.2,0.1v-3.8l-0.1,0c-0.5-0.2-1.1-0.4-1.9-0.5C149.8,54.4,149.1,54.3,148.5,54.3
	 M131.1,69.2c-1.5,0-2.7-0.5-3.5-1.5c-0.8-1-1.3-2.4-1.3-4.2c0-1.8,0.4-3.3,1.3-4.3c0.8-1,2-1.5,3.5-1.5c1.4,0,2.6,0.5,3.4,1.4
	c0.8,1,1.2,2.4,1.2,4.3c0,1.9-0.4,3.3-1.2,4.3C133.7,68.7,132.6,69.2,131.1,69.2 M131.2,54.3c-2.9,0-5.2,0.8-6.8,2.5
	c-1.6,1.7-2.4,4-2.4,6.8c0,2.7,0.8,4.9,2.4,6.5c1.6,1.6,3.7,2.4,6.4,2.4c2.8,0,5-0.9,6.6-2.5c1.6-1.7,2.4-4,2.4-6.8
	c0-2.8-0.8-5-2.3-6.6C136.1,55.1,133.9,54.3,131.2,54.3 M115.7,57.7v-3h-4.1v17.4h4.1v-8.9c0-1.5,0.3-2.8,1-3.7
	c0.7-0.9,1.6-1.4,2.6-1.4c0.4,0,0.8,0.1,1.2,0.2c0.4,0.1,0.8,0.2,1,0.4l0.2,0.1v-4.1l-0.1,0c-0.4-0.2-0.9-0.2-1.6-0.2
	c-1,0-2,0.3-2.7,1C116.6,56,116.1,56.8,115.7,57.7L115.7,57.7z M104.3,54.3c-1.9,0-3.6,0.4-5,1.2c-1.4,0.8-2.5,1.9-3.3,3.4
	c-0.7,1.4-1.1,3.1-1.1,5c0,1.6,0.4,3.2,1.1,4.5c0.7,1.3,1.8,2.4,3.1,3.1c1.3,0.7,2.8,1.1,4.5,1.1c1.9,0,3.6-0.4,4.9-1.2l0.1,0v-3.8
	l-0.2,0.1c-0.6,0.4-1.3,0.8-2,1c-0.7,0.3-1.4,0.4-2,0.4c-1.6,0-2.9-0.5-3.8-1.5c-0.9-1-1.4-2.4-1.4-4.1c0-1.8,0.5-3.2,1.5-4.3
	c1-1.1,2.3-1.6,3.8-1.6c1.3,0,2.7,0.5,3.9,1.4l0.2,0.1v-4l-0.1,0c-0.5-0.3-1.1-0.5-1.9-0.6C105.8,54.4,105,54.3,104.3,54.3
	 M92.1,54.7H88v17.4h4.1V54.7L92.1,54.7z M90.1,47.3c-0.7,0-1.3,0.2-1.7,0.7c-0.5,0.5-0.7,1-0.7,1.7c0,0.7,0.2,1.2,0.7,1.7
	c0.5,0.4,1.1,0.7,1.8,0.7c0.7,0,1.3-0.2,1.8-0.7c0.5-0.4,0.7-1,0.7-1.7c0-0.7-0.2-1.2-0.7-1.7C91.4,47.5,90.8,47.3,90.1,47.3
	 M79.8,53.4v18.7H84V47.8h-5.8l-7.4,18l-7.1-18h-6v24.3h3.9V53.4h0.1l7.5,18.7h3l7.4-18.7L79.8,53.4L79.8,53.4z"/>
<path class="st1" d="M24.3,59H5V39.7h19.3V59z"/>
<path class="st2" d="M45.6,59H26.3V39.7h19.3L45.6,59L45.6,59z"/>
<path class="st3" d="M24.3,80.3H5V61h19.3V80.3z"/>
<path class="st4" d="M45.6,80.3H26.3V61h19.3L45.6,80.3L45.6,80.3z"/>
</svg>
